src/assets/img/logo-simpleico.svg

<?xml version="1.0" encoding="UTF-8"?>
<svg width="640px" height="262px" viewBox="0 0 640 262" version="1.1" xmlns="http://www.w3.org/2000/svg" xmlns:xlink="http://www.w3.org/1999/xlink">
    <!-- Generator: Sketch 43.2 (39069) - http://www.bohemiancoding.com/sketch -->
    <title>logo-simpleico</title>
    <desc>Created with Sketch.</desc>
    <defs></defs>
    <g id="Page-1" stroke="none" stroke-width="1" fill="none" fill-rule="evenodd">
        <g id="Desktop-HD" transform="translate(-373.000000, -381.000000)" fill-rule="nonzero" fill="#FFFFFF">
            <g id="logo-simpleico" transform="translate(373.000000, 381.000000)">
                <path d="M99.84,212.14 C55.12,212.14 17.93,175.76 17.93,131.01 C17.9023252,86.2294623 54.1495408,49.8882725 98.93,49.8 L99.93,49.8 L99.93,32.56 L98.93,32.56 C44.76,32.56 0.72,76.73 0.72,131.01 C0.791232694,185.254421 44.6858549,229.242902 98.93,229.43 L99.93,229.43 L99.93,228.43 L99.93,228.43" id="Shape"></path>
                <path d="M99.84,0.87 L99.84,0.87 L99.84,18.16 C162.69,18.16 213.84,68.81 213.84,131.05 C213.724351,193.313744 163.26379,243.751946 101,243.84 L99.85,243.84 L99.85,261.14 L101,261.14 C172.833281,261.068285 231.036933,202.833309 231.07,131 C231.07,59.22 172.19,0.82 99.84,0.82" id="Shape"></path>
                <path d="M87.41,112.34 C90.6964005,109.655363 94.7607907,108.101848 99,107.91 L100,107.91 L100,92.26 L98.85,92.34 C90.28,92.84 83.39,95.66 76.49,101.43 C71.4222129,105.624156 67.8619157,111.35785 66.35,117.76 C64.8122201,124.255334 66.4819497,131.094159 70.84,136.15 C74.6358137,140.865526 80.4081225,143.54843 86.46,143.41 C88.17624,143.413107 89.889454,143.265878 91.58,142.97 C94.1826609,142.479463 96.7486662,141.811233 99.26,140.97 L99.99,140.76 L99.99,124.07 L98.63,124.51 C94.45,125.89 91.06,126.91 88.29,126.91 C86.5892133,127.037587 84.9270395,126.360131 83.8,125.08 C82.2703434,123.293667 81.8830542,120.795651 82.8,118.63 C83.8042865,116.177282 85.4021335,114.012457 87.45,112.33" id="Shape"></path>
                <path d="M133.69,148.5 C129.77,151.76 123.97,153.65 117.86,153.65 C116.656458,153.637345 115.454571,153.55722 114.26,153.41 L113.11,153.23 L113.11,169.71 L114.11,169.71 L116.36,169.71 C126.91,169.71 136.11,166.55 143.58,160.23 C148.962268,155.81032 152.607331,149.628945 153.87,142.78 C155.086872,136.087618 153.253466,129.201344 148.87,124 C144.688308,118.631989 138.223431,115.545891 131.42,115.67 C125.36,115.67 119.42,117.67 113.87,119.48 L113.19,119.69 L113.14,136.75 L114.5,136.33 C115.65,135.94 116.85,135.54 118.05,135.13 C122.23,133.69 126.31,132.36 129.65,132.36 C132.066196,132.208218 134.405155,133.241538 135.92,135.13 C139.26,139.08 138.32,144.59 133.72,148.48" id="Shape"></path>
                <path d="M297.47,100.75 C301.34,104.28 307.4,106.39 313.14,106.39 C317.32,106.39 320.45,104.39 320.45,101.56 C320.45,92.92 292.76,96 292.76,77.56 C292.76,66.56 303.31,59.69 314.7,59.69 C322.12,59.69 330.27,62.56 334.03,65.46 L326.82,76.61 C323.659007,74.1789429 319.806551,72.8165745 315.82,72.72 C311.64,72.72 308.09,74.37 308.09,77.32 C308.09,84.74 335.78,81.79 335.78,101.67 C335.78,112.67 325.02,119.38 313.01,119.38 C304.725702,119.306946 296.676142,116.619093 290.01,111.7 L297.47,100.75 Z" id="Shape"></path>
                <path d="M377.9,118.77 L377.9,61.52 L392.63,61.52 L392.63,66.12 C396.872136,62.3103888 402.388661,60.2300953 408.09,60.29 C415.55377,60.2540583 422.643218,63.5548877 427.42,69.29 C432.680326,63.670553 439.993804,60.4233253 447.69,60.29 C455.425197,60.230623 462.782359,63.6304681 467.75,69.56 C471.41,74.03 473.6,79.93 473.6,88.44 L473.6,118.77 L458.24,118.77 L458.24,87.87 C458.24,82.62 457.09,80.03 455.42,78.05 C453.162869,75.6893128 450.01512,74.3895504 446.75,74.47 C440.17,74.47 434.94,79.09 432.96,82.05 C433.220963,84.1736698 433.361189,86.3104389 433.38,88.45 L433.38,118.78 L418,118.78 L418,87.88 C418,82.63 417,80.04 415.18,78.06 C412.962452,75.7022002 409.845797,74.4002604 406.61,74.48 C400.03,74.48 395.32,78.87 393.13,81.61 L393.13,118.78 L377.9,118.77 Z" id="Shape"></path>
                <path d="M486.56,61 L501.29,61 L501.29,65.6 C506.071815,61.8026437 512.014143,59.7653748 518.12,59.83 C533.69,59.83 546.22,72.83 546.22,89.74 C546.297431,97.0883293 543.735525,104.220504 539,109.84 C533.476086,116.029437 525.565905,119.556803 517.27,119.53 C511.709363,119.614312 506.287922,117.789518 501.91,114.36 L501.91,146.69 L486.56,146.69 L486.56,61 Z M501.92,98.22 C505.077971,102.700554 510.228477,105.352373 515.71,105.32 C524.38,105.32 530.86,98.71 530.86,89.73 C530.86,81.45 525.11,74.01 516.13,74.01 C510.539722,73.9878696 505.269084,76.6139156 501.92,81.09 L501.92,98.22 Z" id="Shape"></path>
                <rect id="Rectangle-path" x="557.08" y="33.54" width="15.36" height="83.9"></rect>
                <path d="M638,109.92 C632.36,116.55 623.37,120.21 614.49,120.21 C597.35,120.21 584.4,108.41 584.4,90.46 C584.4,74.46 595.27,60.58 612.3,60.58 C628.18,60.58 639.36,73.9 639.36,89.84 C639.368905,91.309102 639.265269,92.7767281 639.05,94.23 L599.29,94.23 C600.13,102.23 606.6,107.84 614.75,107.84 C621.23,107.84 626.45,104.16 629.17,101.21 L638,109.92 Z M623.64,83 C622.883652,77.284486 618.015332,73.0102804 612.25,73 C605.88,73 600.76,77.83 600.03,83 L623.64,83 Z" id="Shape"></path>
                <path d="M354.83,39.32 C359.156652,39.4686527 362.553136,43.0798975 362.436566,47.4075328 C362.319996,51.7351681 358.734033,55.158333 354.405652,55.0738527 C350.077272,54.9893724 346.627614,51.428888 346.68,47.1 C346.799996,42.7089461 350.43811,39.2359977 354.83,39.32" id="Shape"></path>
                <rect id="Rectangle-path" x="347.1" y="61.73" width="15.36" height="57.33"></rect>
                <path d="M303.11,128.93 C307.435371,129.078546 310.831435,132.687728 310.716772,137.014129 C310.602108,141.340531 307.019635,144.764759 302.692469,144.683985 C298.365302,144.60321 294.913119,141.047667 294.96,136.72 C294.980232,134.59723 295.857177,132.572661 297.391781,131.105843 C298.926385,129.639025 300.988481,128.854376 303.11,128.93" id="Shape"></path>
                <rect id="Rectangle-path" x="295.28" y="151.35" width="15.46" height="57.34"></rect>
                <path d="M393.15,197 C386.57,206 378,209.85 367.26,209.85 C349.6,209.85 336.54,196.63 336.54,180.1 C336.54,163.57 349.91,150.22 367.36,150.22 C376.72177,150.152349 385.601428,154.365675 391.47,161.66 L380.6,171.25 C377.517761,166.998012 372.601389,164.460051 367.35,164.41 C363.198481,164.38203 359.212213,166.034694 356.298321,168.991909 C353.384428,171.949124 351.790769,175.959346 351.88,180.11 C351.88,189.11 358.47,195.7 367.66,195.7 C373.224629,195.619333 378.385342,192.778504 381.43,188.12 L393.15,197 Z" id="Shape"></path>
                <path d="M442.88,150.2 C460.23,150.2 473.39,163.53 473.39,180.08 C473.39,196.63 460.23,209.83 442.88,209.83 C425.53,209.83 412.37,196.61 412.37,180.08 C412.37,163.55 425.54,150.2 442.88,150.2 M442.88,195.68 C451.88,195.68 458.03,188.68 458.03,180.09 C458.03,171.5 451.87,164.39 442.88,164.39 C433.89,164.39 427.73,171.47 427.73,180.09 C427.73,188.71 433.89,195.68 442.88,195.68" id="Shape"></path>
            </g>
        </g>
    </g>
</svg>

<?xml version="1.0" encoding="utf-8"?>
<!-- Generator: Adobe Illustrator 22.1.0, SVG Export Plug-In . SVG Version: 6.00 Build 0)  -->
<svg version="1.1" id="Layer_1" xmlns="http://www.w3.org/2000/svg" xmlns:xlink="http://www.w3.org/1999/xlink" x="0px" y="0px"
	 viewBox="0 0 640 262" style="enable-background:new 0 0 640 262;" xml:space="preserve">
<style type="text/css">
	.st0{fill:#3F2F90;}
</style>
<title>logo-simpleico</title>
<desc>Created with Sketch.</desc>
<g id="Page-1">
	<g id="Desktop-HD" transform="translate(-373.000000, -381.000000)">
		<g id="logo-simpleico" transform="translate(373.000000, 381.000000)">
			<path id="Shape" class="st0" d="M99.8,212.1c-44.7,0-81.9-36.4-81.9-81.1c0-44.8,36.2-81.1,81-81.2h1V32.6h-1
				C44.8,32.6,0.7,76.7,0.7,131c0.1,54.2,44,98.2,98.2,98.4h1v-1l0,0"/>
			<path id="Shape_1_" class="st0" d="M99.8,0.9L99.8,0.9v17.3c62.9,0,114,50.6,114,112.9c-0.1,62.3-50.6,112.7-112.8,112.8h-1.2
				v17.3h1.2c71.8-0.1,130-58.3,130.1-130.1C231.1,59.2,172.2,0.8,99.8,0.9"/>
			<path id="Shape_2_" class="st0" d="M87.4,112.3c3.3-2.7,7.4-4.2,11.6-4.4h1V92.3l-1.2,0.1c-8.6,0.5-15.5,3.3-22.4,9.1
				c-5.1,4.2-8.6,9.9-10.1,16.3c-1.5,6.5,0.1,13.3,4.5,18.4c3.8,4.7,9.6,7.4,15.6,7.3c1.7,0,3.4-0.1,5.1-0.4c2.6-0.5,5.2-1.2,7.7-2
				l0.7-0.2v-16.7l-1.4,0.4c-4.2,1.4-7.6,2.4-10.3,2.4c-1.7,0.1-3.4-0.5-4.5-1.8c-1.5-1.8-1.9-4.3-1-6.5
				C83.8,116.2,85.4,114,87.4,112.3"/>
			<path id="Shape_3_" class="st0" d="M133.7,148.5c-3.9,3.3-9.7,5.1-15.8,5.1c-1.2,0-2.4-0.1-3.6-0.2l-1.2-0.2v16.5h1h2.2
				c10.6,0,19.8-3.2,27.2-9.5c5.4-4.4,9-10.6,10.3-17.4c1.2-6.7-0.6-13.6-5-18.8c-4.2-5.4-10.6-8.5-17.4-8.3c-6.1,0-12,2-17.5,3.8
				l-0.7,0.2l-0.1,17.1l1.4-0.4c1.2-0.4,2.3-0.8,3.6-1.2c4.2-1.4,8.3-2.8,11.6-2.8c2.4-0.2,4.8,0.9,6.3,2.8
				C139.3,139.1,138.3,144.6,133.7,148.5"/>
			<path id="Shape_4_" class="st0" d="M297.5,100.8c3.9,3.5,9.9,5.6,15.7,5.6c4.2,0,7.3-2,7.3-4.8c0-8.6-27.7-5.6-27.7-24
				c0-11,10.5-17.9,21.9-17.9c7.4,0,15.6,2.9,19.3,5.8l-7.2,11.2c-3.2-2.4-7-3.8-11-3.9c-4.2,0-7.7,1.7-7.7,4.6
				c0,7.4,27.7,4.5,27.7,24.3c0,11-10.8,17.7-22.8,17.7c-8.3-0.1-16.3-2.8-23-7.7L297.5,100.8z"/>
			<path id="Shape_5_" class="st0" d="M377.9,118.8V61.5h14.7v4.6c4.2-3.8,9.8-5.9,15.5-5.8c7.5,0,14.6,3.3,19.3,9
				c5.3-5.6,12.6-8.9,20.3-9c7.7-0.1,15.1,3.3,20.1,9.3c3.7,4.5,5.9,10.4,5.9,18.9v30.3h-15.4V87.9c0-5.2-1.1-7.8-2.8-9.8
				c-2.3-2.4-5.4-3.7-8.7-3.6c-6.6,0-11.8,4.6-13.8,7.6c0.3,2.1,0.4,4.3,0.4,6.4v30.3H418V87.9c0-5.2-1-7.8-2.8-9.8
				c-2.2-2.4-5.3-3.7-8.6-3.6c-6.6,0-11.3,4.4-13.5,7.1v37.2L377.9,118.8z"/>
			<path id="Shape_6_" class="st0" d="M486.6,61h14.7v4.6c4.8-3.8,10.7-5.8,16.8-5.8c15.6,0,28.1,13,28.1,29.9
				c0.1,7.3-2.5,14.5-7.2,20.1c-5.5,6.2-13.4,9.7-21.7,9.7c-5.6,0.1-11-1.7-15.4-5.2v32.3h-15.4V61z M501.9,98.2
				c3.2,4.5,8.3,7.1,13.8,7.1c8.7,0,15.1-6.6,15.1-15.6c0-8.3-5.8-15.7-14.7-15.7c-5.6,0-10.9,2.6-14.2,7.1V98.2z"/>
			<rect id="Rectangle-path" x="557.1" y="33.5" class="st0" width="15.4" height="83.9"/>
			<path id="Shape_7_" class="st0" d="M638,109.9c-5.6,6.6-14.6,10.3-23.5,10.3c-17.1,0-30.1-11.8-30.1-29.8
				c0-16,10.9-29.9,27.9-29.9c15.9,0,27.1,13.3,27.1,29.3c0,1.5-0.1,2.9-0.3,4.4h-39.8c0.8,8,7.3,13.6,15.5,13.6
				c6.5,0,11.7-3.7,14.4-6.6L638,109.9z M623.6,83c-0.8-5.7-5.6-10-11.4-10c-6.4,0-11.5,4.8-12.2,10H623.6z"/>
			<path id="Shape_8_" class="st0" d="M354.8,39.3c4.3,0.1,7.7,3.8,7.6,8.1c-0.1,4.3-3.7,7.8-8,7.7c-4.3-0.1-7.8-3.6-7.7-8
				C346.8,42.7,350.4,39.2,354.8,39.3"/>
			<rect id="Rectangle-path_1_" x="347.1" y="61.7" class="st0" width="15.4" height="57.3"/>
			<path id="Shape_9_" class="st0" d="M303.1,128.9c4.3,0.1,7.7,3.8,7.6,8.1s-3.7,7.8-8,7.7c-4.3-0.1-7.8-3.6-7.7-8
				c0-2.1,0.9-4.1,2.4-5.6C298.9,129.6,301,128.9,303.1,128.9"/>
			<rect id="Rectangle-path_2_" x="295.3" y="151.4" class="st0" width="15.5" height="57.3"/>
			<path id="Shape_10_" class="st0" d="M393.1,197c-6.6,9-15.1,12.9-25.9,12.9c-17.7,0-30.7-13.2-30.7-29.8s13.4-29.9,30.8-29.9
				c9.4-0.1,18.2,4.1,24.1,11.4l-10.9,9.6c-3.1-4.3-8-6.8-13.2-6.8c-4.2,0-8.1,1.6-11.1,4.6c-2.9,3-4.5,7-4.4,11.1
				c0,9,6.6,15.6,15.8,15.6c5.6-0.1,10.7-2.9,13.8-7.6L393.1,197z"/>
			<path id="Shape_11_" class="st0" d="M442.9,150.2c17.4,0,30.5,13.3,30.5,29.9s-13.2,29.8-30.5,29.8s-30.5-13.2-30.5-29.8
				S425.5,150.2,442.9,150.2 M442.9,195.7c9,0,15.1-7,15.1-15.6s-6.2-15.7-15.1-15.7s-15.1,7.1-15.1,15.7
				C427.7,188.7,433.9,195.7,442.9,195.7"/>
		</g>
	</g>
</g>
</svg>
